X:1
T:Requiem, 87.87.77
T:Wilhelm A. F. Schulthes, 1868
T:Requiem, 87.87.77
T:Public Domain
C:Wilhelm A. F. Schulthes, 1868
Z:Public Domain
%%score ( 1 2 ) ( 3 4 )
L:1/8
M:4/4
K:Ab
V:1 treble 
V:2 treble 
V:3 bass 
V:4 bass 
V:1
 [Ec]2 [GB]2 [FA]3 [FA] | (dc)(BA) [EA]2 [EG]2 | G2 z c [EA]2 [EA]2 | [=DA][Ac]([GB][FA]) [GB]4 | %4
 [FB]2 [Fc]2 F2 z d x | dc(B=A) [Ec]2 [DB]2 | [=DA]2 (GA) E2 z c x | [Ed]2 [DG]2 [CA]4 | %8
 [_Gc]2 (Bc) [Fd]3 [Fd] | [Gd]2 (de) d2 c2 | [Fc]2 [FB]2 [EA]2 (Bc) | (GF) [EG]2 [EA]4 |] %12
V:2
 x8 | F2 F2 x4 | B3 E2 x3 | x8 | x4 d3 F2 | _G2 F2 x4 | x2 =D2 c3 E2 | x8 | x2 _G2 x4 | x2 G2 A4 | %10
 x6 A2 | d2 x6 |] %12
V:3
 A,2 [E,D]2 [F,C]3 [F,C] | ([B,,B,][C,=A,])([D,B,][=D,_C]) [E,B,]2 [E,B,]2 | %2
 [E,D]2 [G,D]2 [A,C]2 [F,C]2 | B,2 [B,,=D]2 [E,E]4 | [D,B,]2 [C,=A,]2 [B,,B,]2 [D,B,]2 x | %5
 (B,C)(DC) [F,=A,]2 [B,,B,]2 | [B,,B,]2 [F,B,]2 [E,A,]2 [E,A,]2 x | [E,G,]2 [E,B,]2 [A,,A,]4 | %8
 [A,E]2 [A,E]2 [A,D]3 [A,D] | [A,B,]2 [A,B,]2 [A,E]4 | [D,E]2 [D,D]2 [E,C]2 (DC) | %11
 [E,B,]2 [E,D]2 [A,,C]4 |] %12
V:4
 A,2 x6 | x8 | x8 | B,2 x6 | x9 | E,2 F,2 x4 | x9 | x8 | A,,8- | A,,8 | x6 E,2 | x8 |] %12

